!!!OTL: Weihelied. / B. Praesides.
!!!OTL-incipit:KOMM DU BLANKER WEIHEDEGEN
!!!ARE: Europa, Mitteleuropa, Deutschland
!!!SCT: F0469
!!!TXL: @@DE
!!!YEM: Copyright 1995, estate of Helmut Schaffrath.
**kern	**text
*ICvox	*
!! Mixed meters:  3/4; 4/4
*M3/4	*
*k[b-e-]	*
*B-:	*
=1	=1
{(>4b-/	8._Komm
4dd/)	.
8cc/L	du
8aJ	.
=2	=2
(>4b-/	blan-
4dd/)	.
8cc/L	-ker
8aJ}	.
=3	=3
{8b-/	Weihe-
8g	.
(>4f	-de-
4e-)	.
=4	=4
4d	-gen,
4r}	.
{8f	frei-
8f	-er
=5	=5
4f	Männer,
4f	.
8a	frei-
8cc/	-e
=6	=6
(>4cc/	Wehr!
4b-/)}	.
!LO:TX:a:t=Alle.	!
{8b-/	frei-
8dd/	-er
=7	=7
8dd/L	Männer
8ccJ	.
8ee-/L	.
8ccJ	.
8b-/	frei-
8a	-e
=8	=8
(>4cc/	Wehr!
4b-/)	.
4r}	.
=9	=9
{(>4b-/	Bringt
4dd/)	.
8cc/L	ihn
8aJ	.
=10	=10
(>4b-/	feſt-
4dd/)	.
8cc/L	-lich
8aJ}	.
=11	=11
{8b-/	mir
8g	ent-
(>4f	-ge-
4e-)	.
=12	=12
4d	-gen,
4r}	.
{8f	von
8f	dutchbohrten
=13	=13
4f	.
4f	.
8a	Hü-
8cc/	-ten
=14	=14
(>4cc/	ſchwer,
4b-/)}	.
!LO:TX:a:t=Alle.	!
{8b-/	von
8dd/	durch-
=15	=15
8dd/L	-bohr-
8ccJ	.
8ee-/L	-ten
8ccJ	.
8b-/	Hü-
8a	-ten
=16	=16
*M4/4	*
*met(c)	*
(>4cc/	ſchwer.
4b-/)	.
4r}	.
!LO:TX:a:t=Präſides.	!
{8f	Laßt
8f	uns
=17	=17
4.b-/	feſt-
8cc/	-lich
8dd/L	ihn
8ccJ	.
8b-/L	ent-
8aJ	.
=18	=18
8aL	-la-
8gJ	.
4g	-ſten;
4r}	.
{8g	je-
8g	-der
=19	=19
4.c/c	Scheitel
8dd/	.
8een/L	ſei
8ddJ	.
8cc/L	be-
8b-J	.
=20	=20
(>4dd	-deckt!
4cc)	.
4r}	.
{8f	Und
8f	dann
=21	=21
4b-/	laßt
4b-/	ihn
4cc/	un-
4cc/	-be-
=22	=22
(8ddL	-fleckt
8ee-J	.
4ff)	.
4r}	.
{8ee-	bis
8ee-	ʒur
=23	=23
4dd	näch-
8ee-L	-ſten
8ccJ	.
4b-/	Fei-
4a	-er
=24	=24
8b-/L	ra-
8ffJ	.
4ff	-ſten,
4r}	.
!LO:TX:a:t=Alle.	!
{8dd/	bis
8dd/	ʒur
=25	=25
8ddqq	.
4cc	näch-
8ee-L	-ſten
8ccJ	.
4b-/	Fei-
4a/	-er
=26	=26
4cc/	ra-
4b-/	-ſten!
4r}	.
==	==
!!!AGN: Studenten -, Burschenschafts - Lied
!!!ONB: ESAC (Essen Associative Code) Database: FINK
!!!AMT: irregular
!!!AIN: vox
!!!EED: Helmut Schaffrath
!!!EEV: 1.0
!!!RDF**kern: > = above
!!!GTL: Studentenlieder
!!!source: Musikalischer Hausschatz der Deutschen. Eine Sammlung von über 1000 Liedern und Gesängen mit Singstimmen und Klavierbegleitung. Leipzig, Litterarisches Verlags-Haus.
!!!page: 297
!!!URL-scan: https://www.digitale-sammlungen.de/en/view/bsb11144622?page=274
!!!ENC: Anna Maria Matuszewska
!!!EEV: 2024/08/09
*-	*-